X: 592
M: C|
L: 1/8
K: Amix
V: 1
|: B |\
V: 2 clef=bass middle=d
z |\
a2a2 a2a2 | e2e2 g2g2 |
a2a2 a2a2 | e2e2 A2A :|\
|: z |\
a2a2 a2a2 | e2e2 g2g2 |
a2a2 a2a2 | e2e2 A2A2 |\
a2a2 a2a2 | e2e2 g2g2 |\
a2a2 a2a2 | e2e2 A2A |]

